svgs/mijn.svg

<svg xmlns="http://www.w3.org/2000/svg" viewBox="0 0 192 192"><path d="M82.827 175.283c-5.757-.801-15.39-4.011-22.409-7.468-59.224-29.164-59.224-113.646 0-142.814 16.179-7.969 30.469-9.62 77.948-9.01l37.025.475.492 37.868c.611 47.101-.984 60.699-9.042 77.106-15.529 31.615-48.444 48.792-84.014 43.843Zm44.599-30.003c0-2.58-3.328-3.867-19.775-7.651a10586.212 10586.212 0 0 1-39.954-9.288c-20.065-4.712-22.632-4.597-22.712 1.023-.026 1.832 78.824 20.964 81.179 19.697.694-.373 1.262-2.074 1.262-3.781Zm3.21-15.88c-.682-.633-71.675-17.133-78.103-18.152-2.361-.375-3.518.528-3.874 3.025-.458 3.209 1.115 3.931 15.989 7.342 9.073 2.081 27.099 6.254 40.058 9.275 22.7 5.291 23.617 5.375 25.088 2.319.84-1.745 1.219-3.459.842-3.809Zm2.493-10.692c2.059-6.878 9.444-40.806 9.444-43.382 0-5.361-5.646-14.673-10.805-17.819-5.456-3.327-16.959-4.19-21.082-1.581-1.734 1.097-4.054.12-8.053-3.392-4.223-3.708-7.3-4.932-12.396-4.932-3.728 0-10.547-1.233-15.153-2.74-4.607-1.507-8.722-2.394-9.144-1.972-.651.652-14.248 57.311-14.248 59.374 0 .828 11.666 4.219 14.561 4.233 1.097.005 3.926-8.585 6.511-19.766 5.615-24.292 6.295-25.665 12.701-25.665 5.769 0 8.112 4.047 6.945 11.998-.668 4.556-1.122 4.835-6.29 3.865-5.318-.997-5.65-.752-7.367 5.431-2.6 9.365-2.366 10.152 3.369 11.299 4.861.972 5.11 1.381 3.966 6.521-2.157 9.697-1.929 10.143 6.297 12.283l7.876 2.049 1.886-7.862c1.819-7.581 2.083-7.84 7.375-7.222 5.286.617 5.554.357 7.247-7.042 1.973-8.623 1.632-9.441-3.929-9.441-3.134 0-3.927-.908-3.927-4.496 0-5.21 4.299-10.651 8.415-10.651 1.565 0 4.132 1.422 5.705 3.161 2.699 2.982 2.615 4.238-1.496 22.299-2.396 10.526-4.727 20.383-5.18 21.904-.612 2.053.813 3.199 5.543 4.454 9.211 2.444 10.252 2.36 11.229-.908Z"/></svg>

<svg
    xmlns="http://www.w3.org/2000/svg"
    viewBox="0 0 192 192"
    id="vector">
    <g id="group">
        <path
            id="path_6"
            d="M 82.827 175.283 C 77.07 174.482 67.437 171.272 60.418 167.815 C 1.194 138.651 1.194 54.169 60.418 25.001 C 76.597 17.032 90.887 15.381 138.366 15.991 L 175.391 16.466 L 175.883 54.334 C 176.494 101.435 174.899 115.033 166.841 131.44 C 151.312 163.055 118.397 180.232 82.827 175.283 Z M 127.426 145.28 C 127.426 142.7 124.098 141.413 107.651 137.629 C 96.775 135.128 78.795 130.948 67.697 128.341 C 47.632 123.629 45.065 123.744 44.985 129.364 C 44.959 131.196 123.809 150.328 126.164 149.061 C 126.858 148.688 127.426 146.987 127.426 145.28 Z M 130.636 129.4 C 129.954 128.767 58.961 112.267 52.533 111.248 C 50.172 110.873 49.015 111.776 48.659 114.273 C 48.201 117.482 49.774 118.204 64.648 121.615 C 73.721 123.696 91.747 127.869 104.706 130.89 C 127.406 136.181 128.323 136.265 129.794 133.209 C 130.634 131.464 131.013 129.75 130.636 129.4 Z M 133.129 118.708 C 135.188 111.83 142.573 77.902 142.573 75.326 C 142.573 69.965 136.927 60.653 131.768 57.507 C 126.312 54.18 114.809 53.317 110.686 55.926 C 108.952 57.023 106.632 56.046 102.633 52.534 C 98.41 48.826 95.333 47.602 90.237 47.602 C 86.509 47.602 79.69 46.369 75.084 44.862 C 70.477 43.355 66.362 42.468 65.94 42.89 C 65.289 43.542 51.692 100.201 51.692 102.264 C 51.692 103.092 63.358 106.483 66.253 106.497 C 67.35 106.502 70.179 97.912 72.764 86.731 C 78.379 62.439 79.059 61.066 85.465 61.066 C 91.234 61.066 93.577 65.113 92.41 73.064 C 91.742 77.62 91.288 77.899 86.12 76.929 C 80.802 75.932 80.47 76.177 78.753 82.36 C 76.153 91.725 76.387 92.512 82.122 93.659 C 86.983 94.631 87.232 95.04 86.088 100.18 C 83.931 109.877 84.159 110.323 92.385 112.463 L 100.261 114.512 L 102.147 106.65 C 103.966 99.069 104.23 98.81 109.522 99.428 C 114.808 100.045 115.076 99.785 116.769 92.386 C 118.742 83.763 118.401 82.945 112.84 82.945 C 109.706 82.945 108.913 82.037 108.913 78.449 C 108.913 73.239 113.212 67.798 117.328 67.798 C 118.893 67.798 121.46 69.22 123.033 70.959 C 125.732 73.941 125.648 75.197 121.537 93.258 C 119.141 103.784 116.81 113.641 116.357 115.162 C 115.745 117.215 117.17 118.361 121.9 119.616 C 131.111 122.06 132.152 121.976 133.129 118.708 Z"
            fill="#000000"
            stroke-width="12"/>
    </g>
</svg>
